src/img/icon_phone.svg

<svg width="15" height="15" viewBox="0 0 15 15" fill="none" xmlns="http://www.w3.org/2000/svg">
<g clip-path="url(#clip0)">
<path d="M14.7 13.0001C14.2 14.4001 12.4 15.1001 11.1 15.0001C9.29999 14.8001 7.39999 13.9001 5.89999 12.9001C3.79999 11.3001 1.79999 9.00008 0.699988 6.50008C-0.100012 4.70008 -0.300012 2.60008 0.899988 1.00008C1.29999 0.400084 1.79999 8.40174e-05 2.59999 8.40174e-05C3.59999 -0.099916 3.79999 0.500084 4.09999 1.50008C4.39999 2.20008 4.69999 2.90008 4.89999 3.60008C5.29999 4.90008 3.99999 4.90008 3.79999 6.00008C3.69999 6.70008 4.59999 7.60008 4.89999 8.10008C5.59999 9.10008 6.49999 9.90008 7.49999 10.5001C8.09999 10.9001 8.99999 11.5001 9.59999 11.1001C10.6 10.6001 10.5 8.90008 11.9 9.40008C12.6 9.70008 13.3 10.1001 14 10.5001C15.2 11.2001 15.1 11.8001 14.7 13.0001C14.4 13.9001 15 12.1001 14.7 13.0001Z" fill="#3C3B55"/>
</g>
<defs>
<clipPath id="clip0">
<rect width="15" height="15" fill="white"/>
</clipPath>
</defs>
</svg>

<?xml version="1.0" encoding="utf-8"?>
<!-- Generator: Adobe Illustrator 22.0.1, SVG Export Plug-In . SVG Version: 6.00 Build 0)  -->
<svg version="1.1" id="Слой_1" xmlns="http://www.w3.org/2000/svg" xmlns:xlink="http://www.w3.org/1999/xlink" x="0px" y="0px"
	 viewBox="0 0 15 15" style="enable-background:new 0 0 15 15;" xml:space="preserve" width="15" height="15" fill="#3c3b55">
<style type="text/css">
	.st0{fill:#020203;}
</style>
<path id="call_1_" class="st0" d="M14.7,13c-0.5,1.4-2.3,2.1-3.6,2c-1.8-0.2-3.7-1.1-5.2-2.1C3.8,11.3,1.8,9,0.7,6.5
	c-0.8-1.8-1-3.9,0.2-5.5C1.3,0.4,1.8,0,2.6,0c1-0.1,1.2,0.5,1.5,1.5c0.3,0.7,0.6,1.4,0.8,2.1C5.3,4.9,4,4.9,3.8,6
	C3.7,6.7,4.6,7.6,4.9,8.1c0.7,1,1.6,1.8,2.6,2.4c0.6,0.4,1.5,1,2.1,0.6c1-0.5,0.9-2.2,2.3-1.7c0.7,0.3,1.4,0.7,2.1,1.1
	C15.2,11.2,15.1,11.8,14.7,13C14.4,13.9,15,12.1,14.7,13z"/>
</svg>
